X:248
T:Geese in the Bog, The
T:Old Geese in the Bog, The
R:jig
H:Also played in D, #350
H:See also #476
D:Music at Matt Molloy's
Z:id:hn-jig-248
M:6/8
L:1/8
K:C
cEE GEE | cEE GAB | cEE GED | EAA A2B |
cEE GEE | cEE GAB | cBA GED | EAA A2B :|
|: cde g2e | gea ged | cde ged | eaa age |
cde g2e | gea ged | cBA GED | EAA A2B :|
P:variations of 2nd part
cde ged | eaa ged | cde ged | eaa a2B |
cde ged | eaa ged | cBA GED | EAA A2B ||
cde ged | eaf ged | cde ged | eag age |
cde ged | eda ged | cBA GED | EAA A2B ||

